Icons/Line/si_Unlock_muted.svg

<svg width="24" height="24" fill="none" xmlns="http://www.w3.org/2000/svg"><path d="M4.6 10h10.8c.88 0 1.6.72 1.6 1.6v7c0 1.32-1.08 2.4-2.4 2.4H5.4C4.08 21 3 19.92 3 18.6v-7c0-.88.72-1.6 1.6-1.6Z" stroke="#000" stroke-width="1.5" stroke-miterlimit="10"/><path d="M14 10V7c0-2.21 1.79-4 4-4s4 1.79 4 4v3" stroke="#000" stroke-width="1.5" stroke-miterlimit="10" stroke-linecap="round"/></svg>

<svg width="24" height="24" viewBox="0 0 24 24" fill="none" xmlns="http://www.w3.org/2000/svg">
<path d="M4.6 10H15.4C16.28 10 17 10.72 17 11.6V18.6C17 19.92 15.92 21 14.6 21H5.4C4.08 21 3 19.92 3 18.6V11.6C3 10.72 3.72 10 4.6 10Z" stroke="black" stroke-width="1.5" stroke-miterlimit="10"/>
<path d="M14 10V7C14 4.79 15.79 3 18 3C20.21 3 22 4.79 22 7V10" stroke="black" stroke-width="1.5" stroke-miterlimit="10" stroke-linecap="round"/>
</svg>
